assets/icons/standard/record.svg

<?xml version="1.0"?><svg xmlns="http://www.w3.org/2000/svg" width="100" height="100" viewBox="0 0 100 100"><path fill="#fff" d="m39 32h22c1.1 0 2-0.9 2-2v-4c0-3.3-2.7-6-6-6h-14c-3.3 0-6 2.7-6 6v4c0 1.1 0.9 2 2 2z m33-7h-2c-0.6 0-1 0.4-1 1v4c0 4.4-3.6 8-8 8h-22c-4.4 0-8-3.6-8-8v-4c0-0.6-0.4-1-1-1h-2c-3.3 0-6 2.7-6 6v43c0 3.3 2.7 6 6 6h44c3.3 0 6-2.7 6-6v-43c0-3.3-2.7-6-6-6z m-33 43c0 1.1-0.9 2-2 2h-2c-1.1 0-2-0.9-2-2v-2c0-1.1 0.9-2 2-2h2c1.1 0 2 0.9 2 2v2z m0-10c0 1.1-0.9 2-2 2h-2c-1.1 0-2-0.9-2-2v-2c0-1.1 0.9-2 2-2h2c1.1 0 2 0.9 2 2v2z m0-10c0 1.1-0.9 2-2 2h-2c-1.1 0-2-0.9-2-2v-2c0-1.1 0.9-2 2-2h2c1.1 0 2 0.9 2 2v2z m28 20c0 1.1-0.9 2-2 2h-20c-1.1 0-2-0.9-2-2v-2c0-1.1 0.9-2 2-2h20c1.1 0 2 0.9 2 2v2z m0-10c0 1.1-0.9 2-2 2h-20c-1.1 0-2-0.9-2-2v-2c0-1.1 0.9-2 2-2h20c1.1 0 2 0.9 2 2v2z m0-10c0 1.1-0.9 2-2 2h-20c-1.1 0-2-0.9-2-2v-2c0-1.1 0.9-2 2-2h20c1.1 0 2 0.9 2 2v2z"></path></svg>

<svg xmlns="http://www.w3.org/2000/svg" x="0px" y="0px" width="100" height="100"
	 viewBox="0 0 100 100" style="enable-background:new 0 0 100 100;" xml:space="preserve">

<g>
	<g>
		<path fill="#FFFFFF" d="M39,32h22c1.1,0,2-0.9,2-2v-4c0-3.3-2.7-6-6-6H43c-3.3,0-6,2.7-6,6v4C37,31.1,37.9,32,39,32z"/>
	</g>
	<g>
		<path fill="#FFFFFF" d="M72,25h-2c-0.6,0-1,0.4-1,1v4c0,4.4-3.6,8-8,8H39c-4.4,0-8-3.6-8-8v-4c0-0.6-0.4-1-1-1h-2c-3.3,0-6,2.7-6,6
			v43c0,3.3,2.7,6,6,6h44c3.3,0,6-2.7,6-6V31C78,27.7,75.3,25,72,25z M39,68c0,1.1-0.9,2-2,2h-2c-1.1,0-2-0.9-2-2v-2
			c0-1.1,0.9-2,2-2h2c1.1,0,2,0.9,2,2V68z M39,58c0,1.1-0.9,2-2,2h-2c-1.1,0-2-0.9-2-2v-2c0-1.1,0.9-2,2-2h2c1.1,0,2,0.9,2,2V58z
			 M39,48c0,1.1-0.9,2-2,2h-2c-1.1,0-2-0.9-2-2v-2c0-1.1,0.9-2,2-2h2c1.1,0,2,0.9,2,2V48z M67,68c0,1.1-0.9,2-2,2H45
			c-1.1,0-2-0.9-2-2v-2c0-1.1,0.9-2,2-2h20c1.1,0,2,0.9,2,2V68z M67,58c0,1.1-0.9,2-2,2H45c-1.1,0-2-0.9-2-2v-2c0-1.1,0.9-2,2-2h20
			c1.1,0,2,0.9,2,2V58z M67,48c0,1.1-0.9,2-2,2H45c-1.1,0-2-0.9-2-2v-2c0-1.1,0.9-2,2-2h20c1.1,0,2,0.9,2,2V48z"/>
	</g>
</g>
</svg>
